!!!COM: Palestrina, Giovanni Perluigi da
!!!OPR: In te Domine speravi (1593-4)
!!!OTL: Benedictus
**kern	**kern	**kern
*Ibass	*Icalto	*Icant
!Bassus	!Altus	!Cantus
*clefF4	*clefG2	*clefG2
*k[]	*k[]	*k[]
*D:dor	*D:dor	*D:dor
*M4/2	*M4/2	*M4/2
=1	=1	=1
0r	0r	0ee
=2	=2	=2
0r	0r	1dd
.	.	[1ee
=3	=3	=3
0r	0a	2ee]
.	.	2a
.	.	1cc
=4	=4	=4
0r	1g	1b
.	[1a	4a
.	.	4b
.	.	4cc
.	.	4dd
=5	=5	=5
0r	2a]	4ee
.	.	4cc
.	2d	2.ff
.	1f	.
.	.	4ee
.	.	[2dd
=6	=6	=6
0r	1e	2dd]
.	.	2cc
.	4d	1ff
.	4e	.
.	4f	.
.	4g	.
=7	=7	=7
0A	4a	2ee
.	4b	.
.	2.cc	4a
.	.	4b
.	.	4cc
.	4b	4dd
.	4cc	[2ee
.	4a	.
=8	=8	=8
1G	1b-	2ee]
.	.	1dd
[1A	2.a	.
.	.	4cc
.	8g	4b
.	8f	.
=9	=9	=9
2A]	2e	2cc
2D	2.f	2.dd
1F	.	.
.	4g	4cc
.	[2a	2a
=10	=10	=10
1E	2a]	1b
.	2g	.
4D	1f	2r
4E	.	.
4F	.	2a
4G	.	.
=11	=11	=11
4A	0e	2.cc
4B	.	.
2.c	.	.
.	.	8b
.	.	8a
.	.	2g
4B	.	.
4c	.	[2a
4A	.	.
=12	=12	=12
1B-	2r	2a]
.	2d	2g
2A	2.f	[1a
2D	.	.
.	8e	.
.	8d	.
=13	=13	=13
2.F	2c	1a]
.	1d	.
8E	.	.
8D	.	.
1E	.	2r
.	2c#	2ee
=14	=14	=14
1D	2d	2.ff
.	2d	.
.	.	8ee
.	.	8dd
1r	2.f	2cc
.	.	2dd
.	8e	.
.	8d	.
=15	=15	=15
0r	2c	2ee
.	2d	2a
.	4e	2cc
.	4f	.
.	[2g	2b
=16	=16	=16
0d	2g]	0a
.	4f	.
.	4e	.
.	1f	.
=17	=17	=17
1c#	1e	2r
.	.	2ee
[1d	2r	2ff
.	2d	2ff
=18	=18	=18
2d]	4f	2dd
.	4g	.
2A	4a	4cc
.	4b-	4dd
1c	2a	4ee
.	.	4ff
.	4g	[2ee
.	4f	.
=19	=19	=19
1B-	4g	4ee]
.	4f	4dd
.	4e	1dd
.	4d	.
1A	1e	.
.	.	2cc#
=20	=20	=20
2r	1d	2dd
2d	.	2ff
2d	2r	2ff
2d	2a	2ff
=21	=21	=21
2c	2a	0ee
4A	2a	.
4B	.	.
4c	1g	.
4d	.	.
4e	.	.
4d	.	.
=22	=22	=22
4c	1e	0r
4B	.	.
4A	.	.
4G	.	.
4F	2.f	.
4D	.	.
[2d	.	.
.	4f	.
=23	=23	=23
2d]	2.e	1r
2c#	.	.
.	8d	.
.	8e	.
2.d	4f	2r
.	4e	.
.	[2a	2dd
4c	.	.
=24	=24	=24
2B	4a]	2dd
.	4g#	.
2B	4g#	2dd
.	8f#	.
.	8g#	.
[1A	1a	2cc
.	.	4a
.	.	4b
=25	=25	=25
0A]	2r	4cc
.	.	4dd
.	2a	4ee
.	.	4ff
.	2a	4ee
.	.	4dd
.	2a	4cc
.	.	4b
=26	=26	=26
1r	2f	2a
.	4d	2dd
.	4e	.
2r	4f	2cc
.	4g	.
2d	4a	2ff
.	4b-	.
=27	=27	=27
2d	4a	2ff
.	4g	.
2d	4f	2dd
.	4e	.
2B-	2d	2ff
4G	[2g	[2ee
4A	.	.
=28	=28	=28
2B-	4g]	4ee]
.	4f	4dd
2B-	4f	1dd
.	8e	.
.	8d	.
1A	2e	.
.	2e	2cc#
=29	=29	=29
2r	1d	4dd
.	.	4cc
2G	.	4b-
.	.	4a
2G	2r	2b-
2G	2d	2b-
=30	=30	=30
2F	2d	0a
4D	2d	.
4E	.	.
4F	2c	.
4E	.	.
4F	4A	.
4G	4B	.
=31	=31	=31
4A	4c	1r
4B	4d	.
4c	4e	.
4A	4f	.
4B	2g	2r
4c	.	.
[2d	2f	2a
=32	=32	=32
2d]	1e	2a
2c#	.	2a
2d	1a	2f
2d	.	4d
.	.	4e
=33	=33	=33
2d	1.a	4f
.	.	4g
2d	.	4a
.	.	4b
2c	.	4cc
.	.	4b
4A	2a	4cc
4B	.	4dd
=34	=34	=34
4c	1g	4ee
4d	.	4ff
4e	.	2.ee
4d	.	.
4c	1e	.
4B	.	4dd
4A	.	4cc
4G	.	4b
=35	=35	=35
2F	1.f	2a
2D	.	1dd
[1A	.	.
.	4e	4cc
.	4d	4b
=36	=36	=36
1A]	2e	2cc
.	2f#	2a
[1G	[1g	[1b-
=37	=37	=37
1G]	1g]	1b-]
1D	1f#	1a
=38	=38	=38
0D	0f#	0a
*-	*-	*-
!! Hosanna
**kern	**kern	**kern	**kern
*Ibass	*Itenor	*Icalto	*Icant
!Bassus	!Tenor	!Altus	!Cantus
*clefF4	*clefGv2	*clefG2	*clefG2
*k[]	*k[]	*k[]	*k[]
*D:dor	*D:dor	*D:dor	*D:dor
*M4/2	*M4/2	*M4/2	*M4/2
=39	=39	=39	=39
0r	1d	1r	0r
.	1f	1a	.
=40	=40	=40	=40
0r	2e	1cc	0r
.	2c	.	.
.	2d	2b	.
.	2e	2g	.
=41	=41	=41	=41
0r	4A	2.a	0r
.	4B	.	.
.	4c	.	.
.	4d	4b	.
.	4e	2cc	.
.	4f	.	.
.	[2g	[2b	.
=42	=42	=42	=42
0r	2g]	2b]	1dd
.	4f	4a	.
.	4e	4g	.
.	4d	2a	1ff
.	4c	.	.
.	2d	2b	.
=43	=43	=43	=43
1A	1c	4cc	2ee
.	.	4b	.
.	.	4a	2cc
.	.	4g	.
1B-	1r	4f	2dd
.	.	4e	.
.	.	[2d	[2ff
=44	=44	=44	=44
2A	1r	4d]	4ff]
.	.	4c	4ee
2F	.	2f	1dd
2G	2r	1e	.
2A	2e	.	2cc#
=45	=45	=45	=45
4D	1f	1d	2dd
4E	.	.	.
4F	.	.	4a
4G	.	.	4b
4A	2e	1r	4cc
4B	.	.	4dd
4c	2c	.	2ee
4A	.	.	.
=46	=46	=46	=46
2B	2d	0r	2dd
2.c	2e	.	2g
.	4A	.	1a
4B	4B	.	.
2A	4c	.	.
.	4d	.	.
=47	=47	=47	=47
2G	4e	2r	0r
.	4d	.	.
2F	1f	2a	.
1G	.	1b-	.
.	2e	.	.
=48	=48	=48	=48
1F	2.f	2a	1r
.	.	2f	.
.	8e	.	.
.	8d	.	.
1r	2c	2g	2r
.	2A	2a	2ee
=49	=49	=49	=49
0r	0a	4d	1ff
.	.	4e	.
.	.	4f	.
.	.	4g	.
.	.	4a	2ee
.	.	4b	.
.	.	4cc	2cc
.	.	4a	.
=50	=50	=50	=50
0r	2r	1b	2dd
.	2e	.	2ee
.	1f	2r	4a
.	.	.	4b
.	.	2a	4cc
.	.	.	4dd
=51	=51	=51	=51
1r	2e	2.cc	4ee
.	.	.	4ff
.	2c	.	4gg
.	.	4b	4ee
2r	2d	2a	2ff
2E	2e	2g	4ee
.	.	.	4dd
=52	=52	=52	=52
1F	4A	1a	2cc
.	4B	.	.
.	4c	.	2a
.	4d	.	.
2E	2e	2g	1cc
2C	2e	[2a	.
=53	=53	=53	=53
2D	2f	4a]	1b
.	.	8g#	.
.	.	8f#	.
2E	2e	2g#	.
2.F	1c	[1a	2a
.	.	.	[2ff
4E	.	.	.
=54	=54	=54	=54
4D	1f	0a]	4ff]
4E	.	.	4ee
4F	.	.	1dd
4G	.	.	.
1A	1e	.	.
.	.	.	2cc#
=55	=55	=55	=55
0D	0d	0a	0dd
==	==	==	==
*-	*-	*-	*-
!!!CDT: 1525/^1526/-1594/2/2
!!!OCY: Italia
!!!AGN: Mass (Parody)
!!!AST: renaissance, vocal
!!!ASW: Motet (?Lhéritier)
!!!PWK: Masses, Book 6
!!!RNB: Cadence finals: A
!!!YOR: Le Opere Complete, v. 21, p. 26
!!!YOO: Rome, Italy: Fratelli Scalera
!!!END: 1992//
!!!EED: John Miller
!!!YEC: Copyright 2000, John Miller
!!!YEN: United States of America
!!!YEM: Rights to all derivative electronic formats reserved.
!!!YEM: Refer to licensing agreement for further details.
!!!YEM: This file must be accompanied by the licensing agreement.
!!!YEM: A copy of the licensing agreement may be found at http://www.music-cog.ohio-state.edu/HumdrumDatabases/Palestrina/license.txt
!!!EMD: converted to Humdrum by Bret Aarden
